src/img/channel/channel_16.svg

<svg fill="none" height="44" viewBox="0 0 160 44" width="160" xmlns="http://www.w3.org/2000/svg"><path d="m160 35.5807c0 4.3165-3.499 7.8157-7.816 7.8157-4.316 0-7.815-3.4992-7.815-7.8157 0-4.3166 3.499-7.8158 7.815-7.8158 4.317 0 7.816 3.4992 7.816 7.8158z" fill="#f72d17"/><path clip-rule="evenodd" d="m57.683.00000582-12.5039 20.18009418v-20.18009418h-13.4249l-9.1007 12.02619418-9.22-11.9750193v-.0511807h-.0427-13.3908v42.6545h13.4335v-22.7388l9.2201 11.9664 9.1006-11.8129v22.5853h13.7576l5.5866-9.0239h14.1841v9.0239h13.4335v-30.5345h7.1389v30.5345h13.4335v-30.5345h6.7636v17.664 3.8978h20.572v8.9727h13.434v-42.6545h-13.434v21.5618h-7.138v-21.5618zm87.859-.00000582v26.0908l13.434-8.0942v-17.9966zm-80.2595 21.5191v-10.7809l-6.6784 10.7809z" fill="#f72d17" fill-rule="evenodd"/><g fill="#fff"><path d="m148.707 32.1211v.9382h1.168v5.9278h1.041v-5.9278h1.168v-.9382z"/><path clip-rule="evenodd" d="m152.604 32.1211v6.8234h2.969l.281-.2815v-2.6441l-.554-.5544.554-.5544v-2.5161l-.273-.2729zm1.041.9382h1.16v1.6206l-.307.3156h-.853zm.853 2.8744h-.853v2.0726h1.16v-1.7656z" fill-rule="evenodd"/></g></svg>

<svg width="160" height="44" viewBox="0 0 160 44" fill="none" xmlns="http://www.w3.org/2000/svg">
<path d="M160 35.5807C160 39.8972 156.501 43.3964 152.184 43.3964C147.868 43.3964 144.369 39.8972 144.369 35.5807C144.369 31.2641 147.868 27.7649 152.184 27.7649C156.501 27.7649 160 31.2641 160 35.5807Z" fill="#F72D17"/>
<path fill-rule="evenodd" clip-rule="evenodd" d="M57.683 5.8226e-06L45.1791 20.1801V5.8226e-06H31.7542L22.6535 12.0262L13.4335 0.0511807V0H13.3908H0V42.6545H13.4335V19.9157L22.6536 31.8821L31.7542 20.0692V42.6545H45.5118L51.0984 33.6306H65.2825V42.6545H78.716V12.12H85.8549V42.6545H99.2884V12.12H106.052V29.784V33.6818H126.624V42.6545H140.058V0H126.624V21.5618H119.486V0L57.683 5.8226e-06ZM145.542 0V26.0908L158.976 17.9966V0H145.542ZM65.2825 21.5191V10.7382L58.6041 21.5191H65.2825Z" fill="#F72D17"/>
<path d="M148.707 32.1211V33.0593H149.875V38.9871H150.916V33.0593H152.084V32.1211H148.707Z" fill="white"/>
<path fill-rule="evenodd" clip-rule="evenodd" d="M152.604 32.1211V38.9445H155.573L155.854 38.663V36.0189L155.3 35.4645L155.854 34.9101V32.394L155.581 32.1211H152.604ZM153.645 33.0593H154.805V34.6799L154.498 34.9955H153.645V33.0593ZM154.498 35.9337H153.645V38.0063H154.805V36.2407L154.498 35.9337Z" fill="white"/>
</svg>
